X: 16
T: Trip to the Nore
%R: reel, march
B: "Twenty Four Country Dances for the Year 1782", Thomas Skillern, ed. p.8 #2
F: http://www.vwml.org/browse/browse-collections-dance-tune-books/browse-skillerns1782#
Z: 2014 John Chambers <jc:trillian.mit.edu>
M: 2/4
L: 1/16
K: D
A,2 |\
D2F>F F2G2 | A3d A4 | B2Bc {e}d2cB | A3GF2F2 |\
E3F .G(GFE) | F3G .A(AGF) | B3AG2F2 | {F}E6 :|
|: E2 |\
A2AA A2B2 | c2c2c2d2 | e2c2e2c2 | edcB AGFE |\
D2FF F2G2 | A3d A4 | {c}B2AG F2E2 | D6 :|
%%begintext align
%%   Change sides & back again Lead
%% down the middle up again & the
%% Gent: Cast off set 3 & 3 top and
%% bottom 3 & 3 sideways & hands six round.
%%endtext

%%sep 1 1 500
%%sep 1 1 500
